svg/map/world_2_fill.svg

<?xml version="1.0" encoding="UTF-8"?>
<svg width="24px" height="24px" viewBox="0 0 24 24" version="1.1" xmlns="http://www.w3.org/2000/svg" xmlns:xlink="http://www.w3.org/1999/xlink">
    <title>world_2_fill</title>
    <g id="页面-1" stroke="none" stroke-width="1" fill="none" fill-rule="evenodd">
        <g id="world_2_fill">
             <path d="M24,0 L24,24 L0,24 L0,0 L24,0 Z M12.5934901,23.257841 L12.5819402,23.2595131 L12.5108777,23.2950439 L12.4918791,23.2987469 L12.4918791,23.2987469 L12.4767152,23.2950439 L12.4056548,23.2595131 C12.3958229,23.2563662 12.3870493,23.2590235 12.3821421,23.2649074 L12.3780323,23.275831 L12.360941,23.7031097 L12.3658947,23.7234994 L12.3769048,23.7357139 L12.4804777,23.8096931 L12.4953491,23.8136134 L12.4953491,23.8136134 L12.5071152,23.8096931 L12.6106902,23.7357139 L12.6232938,23.7196733 L12.6232938,23.7196733 L12.6266527,23.7031097 L12.609561,23.275831 C12.6075724,23.2657013 12.6010112,23.2592993 12.5934901,23.257841 L12.5934901,23.257841 Z M12.8583906,23.1452862 L12.8445485,23.1473072 L12.6598443,23.2396597 L12.6498822,23.2499052 L12.6498822,23.2499052 L12.6471943,23.2611114 L12.6650943,23.6906389 L12.6699349,23.7034178 L12.6699349,23.7034178 L12.678386,23.7104931 L12.8793402,23.8032389 C12.8914285,23.8068999 12.9022333,23.8029875 12.9078286,23.7952264 L12.9118235,23.7811639 L12.8776777,23.1665331 C12.8752882,23.1545897 12.8674102,23.1470016 12.8583906,23.1452862 L12.8583906,23.1452862 Z M12.1430473,23.1473072 C12.1332178,23.1423925 12.1221763,23.1452606 12.1156365,23.1525954 L12.1099173,23.1665331 L12.0757714,23.7811639 C12.0751323,23.7926639 12.0828099,23.8018602 12.0926481,23.8045676 L12.108256,23.8032389 L12.3092106,23.7104931 L12.3186497,23.7024347 L12.3186497,23.7024347 L12.3225043,23.6906389 L12.340401,23.2611114 L12.337245,23.2485176 L12.337245,23.2485176 L12.3277531,23.2396597 L12.1430473,23.1473072 Z" id="MingCute" fill-rule="nonzero"></path>
            <path d="M12,2 C17.5228,2 22,6.47715 22,12 C22,17.5228 17.5228,22 12,22 C6.47715,22 2,17.5228 2,12 C2,6.47715 6.47715,2 12,2 Z M14.0003,13.3997 L12.4361,14.651 C12.2034,14.8371 12.1842,15.1842 12.3949,15.395 L13.6335,16.6335 C13.8738,16.8738 14.0489,17.1715 14.1423,17.4983 L14.3173,18.1109 C14.475,18.6626 14.8621,19.0681 15.3341,19.2742 C16.2962,18.8325 17.1556,18.2056 17.8666,17.439 L17.6327,15.5621 C17.5498,14.8985 17.1407,14.3203 16.5426,14.0213 L15.0722,13.2861 C14.7233,13.1117 14.3049,13.156 14.0003,13.3997 Z M12.00019,4.0001 C9.42180852,4.0001 7.12830215,5.21989517 5.66528324,7.11389997 L5.50019,7.3354 L5.50019,9.02036 C5.50019,10.2763981 6.28143263,11.3921732 7.44527412,11.8288578 L7.62267,11.8892 L8.91327,12.2839 C10.2862557,12.7039167 11.6231437,11.5865853 11.4901591,10.1882105 L11.4711,10.0426 L11.2964,8.99432 C11.2156143,8.50963357 11.4984372,8.04442526 11.952231,7.88603447 L12.0599,7.85506 L12.6717,7.71522 C13.6953,7.48125 14.4863,6.66834 14.6923,5.63873 C14.7732,5.23419 14.7578,4.83059 14.6607,4.45314 C13.8284,4.15972 12.9329,4.0001 12.00019,4.0001 Z" id="形状" fill="#09244B" fill-rule="nonzero"></path>
        </g>
    </g>
</svg>

<svg xmlns="http://www.w3.org/2000/svg" width="24" height="24"><g fill="none" fill-rule="evenodd"><path d="M24 0v24H0V0h24ZM12.593 23.258l-.011.002-.071.035-.02.004-.014-.004-.071-.035c-.01-.004-.019-.001-.024.005l-.004.01-.017.428.005.02.01.013.104.074.015.004.012-.004.104-.074.012-.016.004-.017-.017-.427c-.002-.01-.009-.017-.017-.018Zm.265-.113-.013.002-.185.093-.01.01-.003.011.018.43.005.012.008.007.201.093c.012.004.023 0 .029-.008l.004-.014-.034-.614c-.003-.012-.01-.02-.02-.022Zm-.715.002a.023.023 0 0 0-.027.006l-.006.014-.034.614c0 .012.007.02.017.024l.015-.002.201-.093.01-.008.004-.011.017-.43-.003-.012-.01-.01-.184-.092Z"/><path fill="#09244B" fill-rule="nonzero" d="M12 2c5.523 0 10 4.477 10 10s-4.477 10-10 10S2 17.523 2 12 6.477 2 12 2Zm2 11.4-1.564 1.251a.5.5 0 0 0-.041.744l1.239 1.239a2 2 0 0 1 .508.864l.175.613a1.8 1.8 0 0 0 1.017 1.163 8.021 8.021 0 0 0 2.533-1.835l-.234-1.877a2 2 0 0 0-1.09-1.54l-1.47-.736A1 1 0 0 0 14 13.4ZM12 4a7.987 7.987 0 0 0-6.335 3.114l-.165.221V9.02a3 3 0 0 0 1.945 2.809l.178.06 1.29.395c1.373.42 2.71-.697 2.577-2.096l-.019-.145-.175-1.049a1 1 0 0 1 .656-1.108l.108-.03.612-.14a2.667 2.667 0 0 0 1.989-3.263A7.987 7.987 0 0 0 12 4Z"/></g></svg>
